src/lib/packages/icons/src/assets/line/tennis-ball.svg

<svg width="24" height="24" viewBox="0 0 24 24" fill="none" xmlns="http://www.w3.org/2000/svg">
<path d="M22.74 11.87C22.74 11.87 22.74 11.86 22.74 11.85C22.65 6.05002 17.96 1.35002 12.16 1.27002C12.16 1.27002 12.15 1.27002 12.14 1.27002C12.09 1.27002 12.05 1.27002 12.01 1.27002C6.07999 1.27002 1.25999 6.09002 1.25999 12.02C1.25999 12.06 1.25999 12.11 1.25999 12.15C1.25999 12.15 1.25999 12.16 1.25999 12.17C1.34999 17.97 6.04 22.67 11.84 22.75C11.87 22.75 11.9 22.75 11.93 22.75C11.93 22.75 11.93 22.75 11.94 22.75C11.96 22.75 11.97 22.75 11.99 22.75C17.92 22.75 22.74 17.93 22.74 12C22.74 11.96 22.74 11.91 22.74 11.87ZM21.21 11.24C21.14 11.24 21.07 11.25 21 11.25C16.45 11.25 12.75 7.55002 12.75 3.00002C12.75 2.93002 12.76 2.86001 12.76 2.79001C17.25 3.16001 20.84 6.75002 21.21 11.24ZM2.78999 12.77C2.85999 12.77 2.93 12.76 3 12.76C7.55 12.76 11.25 16.46 11.25 21.01C11.25 21.08 11.24 21.15 11.24 21.22C6.75001 20.85 3.15999 17.26 2.78999 12.77ZM12.74 21.22C12.74 21.15 12.75 21.08 12.75 21.01C12.75 15.63 8.38 11.26 3 11.26C2.93 11.26 2.85999 11.27 2.78999 11.27C3.14999 6.76002 6.75 3.15001 11.27 2.79001C11.27 2.86001 11.26 2.93002 11.26 3.00002C11.26 8.38002 15.63 12.75 21.01 12.75C21.08 12.75 21.15 12.74 21.22 12.74C20.86 17.25 17.26 20.86 12.74 21.22Z" fill="currentColor"/>
</svg>

<svg xmlns="http://www.w3.org/2000/svg" width="24" height="24" fill="none"><path fill="currentColor" d="M22.74 11.87v-.02c-.09-5.8-4.78-10.5-10.58-10.58h-.15c-5.93 0-10.75 4.82-10.75 10.75v.15c.09 5.8 4.78 10.5 10.58 10.58h.15c5.93 0 10.75-4.82 10.75-10.75v-.13Zm-1.53-.63c-.07 0-.14.01-.21.01-4.55 0-8.25-3.7-8.25-8.25 0-.07.01-.14.01-.21 4.49.37 8.08 3.96 8.45 8.45ZM2.79 12.77c.07 0 .14-.01.21-.01 4.55 0 8.25 3.7 8.25 8.25 0 .07-.01.14-.01.21-4.49-.37-8.08-3.96-8.45-8.45Zm9.95 8.45c0-.07.01-.14.01-.21 0-5.38-4.37-9.75-9.75-9.75-.07 0-.14.01-.21.01.36-4.51 3.96-8.12 8.48-8.48 0 .07-.01.14-.01.21 0 5.38 4.37 9.75 9.75 9.75.07 0 .14-.01.21-.01-.36 4.51-3.96 8.12-8.48 8.48Z"/></svg>
